dist/svgs/crypto-icons/icons/aeon.svg

<?xml version="1.0" encoding="UTF-8" standalone="yes"?>
<svg xmlns="http://www.w3.org/2000/svg" xmlns:xlink="http://www.w3.org/1999/xlink" width="512px" height="512px" viewBox="0 0 384 384" version="1.1">
  <g id="surface1">
    <path style=" stroke:none;fill-rule:nonzero;fill:rgb(0%,0%,0%);fill-opacity:1;" d="M 287.832031 43.21875 C 280.367188 26.605469 269.464844 14.894531 255.304688 9.957031 C 217.585938 -3.199219 168.046875 35.5625 131.507812 101.253906 C 138.777344 99.53125 146.089844 98.003906 153.441406 96.675781 C 200.765625 65.050781 249.023438 46.507812 287.832031 43.21875 Z M 95.902344 340.402344 C 103.363281 357.015625 114.273438 368.722656 128.429688 373.664062 C 166.144531 386.820312 215.683594 348.054688 252.222656 282.371094 C 244.953125 284.09375 237.636719 285.617188 230.285156 286.945312 C 182.964844 318.570312 134.707031 337.113281 95.902344 340.402344 Z M 95.902344 340.402344 "/>
    <path style=" stroke:none;fill-rule:nonzero;fill:rgb(0%,0%,0%);fill-opacity:1;" d="M 180.261719 92.691406 C 250.316406 84.488281 314.179688 93.945312 354.574219 115.113281 C 356.136719 99.460938 353.160156 85.699219 345.023438 75.027344 C 318.492188 40.234375 245.773438 49.597656 172.21875 93.714844 C 174.898438 93.347656 177.578125 93.007812 180.261719 92.691406 Z M 203.46875 290.929688 C 133.414062 299.132812 69.550781 289.679688 29.160156 268.507812 C 27.597656 284.167969 30.570312 297.925781 38.707031 308.589844 C 65.238281 343.386719 137.957031 334.023438 211.507812 289.90625 C 208.84375 290.273438 206.167969 290.617188 203.46875 290.929688 Z M 142.085938 199.328125 C 132.265625 202.726562 127.261719 215.753906 135.476562 222.269531 C 143.691406 228.789062 157.472656 225.761719 163.890625 219.34375 C 170.3125 212.925781 174.183594 197.164062 174.183594 197.164062 C 174.183594 197.164062 151.90625 195.929688 142.085938 199.328125 Z M 221.859375 162.035156 C 211.191406 169.589844 210.15625 185.261719 210.15625 185.261719 C 210.15625 185.261719 221.761719 186.300781 237.246094 184.597656 C 252.730469 182.902344 255.46875 170.34375 251.695312 162.601562 C 247.914062 154.867188 232.53125 154.484375 221.859375 162.035156 Z M 221.859375 162.035156 "/>
    <path style=" stroke:none;fill-rule:nonzero;fill:rgb(0%,0%,0%);fill-opacity:1;" d="M 383.160156 169.421875 C 377.234375 118.777344 286.785156 87.746094 181.132812 100.109375 C 75.480469 112.476562 -5.359375 163.5625 0.570312 214.203125 C 6.5 264.847656 96.953125 295.875 202.601562 283.507812 C 308.25 271.144531 389.09375 220.0625 383.160156 169.421875 Z M 286.621094 178.683594 C 279.574219 200.839844 245.339844 204.992188 245.339844 204.992188 C 231.617188 206.882812 206.441406 206.628906 206.441406 206.628906 C 204.679688 222.238281 214.371094 224.503906 231.496094 224.757812 C 248.613281 225.003906 269.882812 215.1875 269.882812 215.1875 L 264.597656 242.378906 C 264.597656 242.378906 243.574219 248.042969 227.964844 247.789062 C 212.355469 247.542969 191.589844 248.296875 178.910156 228.785156 C 166.230469 243.007812 149.925781 248.796875 128.148438 248.925781 C 106.371094 249.050781 90.761719 236.082031 96.804688 208.265625 C 102.84375 180.445312 139.222656 177.425781 139.222656 177.425781 C 157.726562 174.90625 178.621094 175.664062 178.621094 175.664062 C 181.269531 158.667969 165.15625 157.660156 148.664062 157.789062 C 132.175781 157.914062 115.183594 167.105469 115.183594 167.105469 L 119.839844 140.292969 C 119.839844 140.292969 137.585938 136.140625 160.25 134.375 C 182.90625 132.613281 199.769531 141.300781 205.1875 153.636719 C 218.53125 139.03125 243.070312 130.09375 264.976562 134.25 C 286.875 138.402344 293.675781 156.53125 286.621094 178.683594 Z M 286.621094 178.683594 "/>
  </g>
</svg>

<svg xmlns="http://www.w3.org/2000/svg" viewBox="0 0 384 384"><path d="M287.832 43.219c-7.465-16.614-18.367-28.324-32.527-33.262-37.72-13.156-87.258 25.605-123.797 91.297a415.362 415.362 0 0121.933-4.578c47.325-31.625 95.582-50.168 134.391-53.457zM95.902 340.402c7.461 16.614 18.371 28.32 32.528 33.262 37.715 13.156 87.254-25.61 123.793-91.293a415.473 415.473 0 01-21.938 4.574c-47.32 31.625-95.578 50.168-134.383 53.457zm0 0"/><path d="M180.262 92.691c70.054-8.203 133.918 1.254 174.312 22.422 1.563-15.652-1.414-29.414-9.55-40.086-26.532-34.793-99.25-25.43-172.805 18.688 2.68-.367 5.36-.707 8.043-1.024zm23.207 198.239c-70.055 8.203-133.918-1.25-174.309-22.422-1.562 15.66 1.41 29.418 9.547 40.082 26.531 34.797 99.25 25.433 172.8-18.684-2.663.367-5.339.711-8.038 1.024zm-61.383-91.602c-9.82 3.399-14.824 16.426-6.61 22.942 8.215 6.52 21.997 3.492 28.415-2.926 6.422-6.418 10.293-22.18 10.293-22.18s-22.278-1.234-32.098 2.164zm79.773-37.293c-10.668 7.555-11.703 23.227-11.703 23.227s11.606 1.039 27.09-.664c15.484-1.696 18.223-14.254 14.45-21.996-3.782-7.735-19.165-8.118-29.837-.567zm0 0"/><path d="M383.16 169.422c-5.926-50.645-96.375-81.676-202.027-69.313C75.48 112.477-5.36 163.563.57 214.203c5.93 50.645 96.383 81.672 202.032 69.305 105.648-12.363 186.492-63.445 180.558-114.086zm-96.539 9.262c-7.047 22.156-41.281 26.308-41.281 26.308-13.723 1.89-38.899 1.637-38.899 1.637-1.761 15.61 7.93 17.875 25.055 18.129 17.117.246 38.387-9.57 38.387-9.57l-5.285 27.19s-21.024 5.665-36.633 5.411c-15.61-.246-36.375.508-49.055-19.004-12.68 14.223-28.984 20.012-50.762 20.14-21.777.126-37.386-12.843-31.343-40.66 6.039-27.82 42.418-30.84 42.418-30.84 18.504-2.519 39.398-1.76 39.398-1.76 2.649-16.997-13.465-18.005-29.957-17.876-16.488.125-33.48 9.316-33.48 9.316l4.656-26.812s17.746-4.152 40.41-5.918c22.656-1.762 39.52 6.926 44.938 19.262 13.343-14.606 37.882-23.543 59.789-19.387 21.898 4.152 28.699 22.281 21.644 44.434zm0 0"/></svg>
